X:1
T:Title
%%score { 1 | 2 }
L:1/8
M:4/4
K:Ab
V:1 treble nm="Grand Piano"
V:2 bass 
V:1
 z4 z2[Q:1/4=100] [CE][CA] | [Ec]2 [=D_c][E=c] [CA]2 [_DB][Ec] | B2 =AB F2 [=D_A]2 | G2 GF E2 Gd | %4
 c4 c2 [CE][CA] | [Ec]2 [=D_c][E=c] [CA]2 Bc | [Fd]2 [Fc][Fd] [A,DF]2 [A,EG][A,FA] | %7
 [A,E]2 [Ed]2 [Ec]2 [EA][EA] | [DB]4 [CA]2 z2 | [Ee]2 [Ec][DB] [CA]2 [DB][Ec] | [DB]4 [DF]4 | %11
 [Gd]2 BA G2 FG | [DF]4 [CE]3 [CE] | eeee c2 =A[FA] |[M:9/8] [FB]2 [Fc] [Fc] [Fd]2- [Fd] [=DF]2 | %15
[M:4/4] G2 GG d2 cA |[M:3/4] B4 [CA]2 |] %17
V:2
 z4 z2 [A,,A,][A,,A,] | [A,,A,]2 [A,,A,][A,,A,] [A,,E,]2 [A,,E,][A,,A,] | %2
 [D,F,D]2 [D,F,D][D,F,D] [D,B,D]2 [B,,B,]2 | [E,B,D]2 [E,B,D][E,A,D] [E,G,D]2 [E,B,D][E,G,F] | %4
 [A,E]4 [A,E]2 [A,,A,][A,,A,] | [A,,A,]2 [A,,A,][A,,A,] [A,,A,]2 [A,D][A,E] | %6
 [D,A,]2 [D,A,][D,A,] D,2 D,D, | C,2 [B,,G,]2 [A,,A,]2 [C,A,][C,A,] | [E,G,]4 [A,,A,]2 z2 | %9
 [A,,C]2 [A,,A,][A,,A,] [A,,E,]2 [A,,A,][A,,A,] | [D,F,]4 [D,B,]4 | %11
 [E,B,]2 [E,DE][E,CE] [E,B,D]2 [E,G,D][E,G,D] | [A,,A,]4 [A,,A,]3 [A,,A,] | %13
 [A,CE][A,CE][A,CE][A,CE] [A,E]2 [F,CE][E,C] | %14
[M:9/8] [D,B,]2 [C,=A,] [C,A,] [B,,B,]2- [B,,B,] [B,,B,]2 | %15
[M:4/4] [E,B,D]2 [E,B,D][E,B,D] [E,G,F]2 [E,A,E][E,A,C] |[M:3/4] [E,G,D]4 [A,,A,]2 |] %17

